set-split.svg

<svg fill="currentColor" viewBox="0 0 24 24"><path d="M17 7v2h5V7zM2 9v6h5V9zm10 0v2H9v2h3v2l3-3zm5 2v2h5v-2zm0 4v2h5v-2z"/></svg>

<svg  viewBox="0 0 24 24" fill="currentColor"><path  d="M17 7V9H22V7H17M2 9V15H7V9H2M12 9V11H9V13H12V15L15 12L12 9M17 11V13H22V11H17M17 15V17H22V15H17Z"/></svg>
